Numix-Circle/48x48/apps/syncthing-gtk.svg

<?xml version="1.0" encoding="UTF-8" standalone="no"?>
<svg
   xmlns:dc="http://purl.org/dc/elements/1.1/"
   xmlns:cc="http://creativecommons.org/ns#"
   xmlns:rdf="http://www.w3.org/1999/02/22-rdf-syntax-ns#"
   xmlns:svg="http://www.w3.org/2000/svg"
   xmlns="http://www.w3.org/2000/svg"
   xmlns:xlink="http://www.w3.org/1999/xlink"
   xmlns:sodipodi="http://sodipodi.sourceforge.net/DTD/sodipodi-0.dtd"
   xmlns:inkscape="http://www.inkscape.org/namespaces/inkscape"
   width="48"
   viewBox="0 0 13.546667 13.546667"
   height="48"
   id="svg2"
   version="1.1"
   inkscape:version="0.91 r13725"
   sodipodi:docname="syncthing-gtk.svg">
  <metadata
     id="metadata331">
    <rdf:RDF>
      <cc:Work
         rdf:about="">
        <dc:format>image/svg+xml</dc:format>
        <dc:type
           rdf:resource="http://purl.org/dc/dcmitype/StillImage" />
        <dc:title />
      </cc:Work>
    </rdf:RDF>
  </metadata>
  <sodipodi:namedview
     pagecolor="#ffffff"
     bordercolor="#666666"
     borderopacity="1"
     objecttolerance="10"
     gridtolerance="10"
     guidetolerance="10"
     inkscape:pageopacity="0"
     inkscape:pageshadow="2"
     inkscape:window-width="1366"
     inkscape:window-height="713"
     id="namedview329"
     showgrid="false"
     inkscape:zoom="8"
     inkscape:cx="15.070736"
     inkscape:cy="24.367842"
     inkscape:window-x="0"
     inkscape:window-y="28"
     inkscape:window-maximized="1"
     inkscape:current-layer="layer3">
    <inkscape:grid
       type="xygrid"
       id="grid3308" />
  </sodipodi:namedview>
  <defs
     id="defs4">
    <linearGradient
       inkscape:collect="always"
       xlink:href="#linearGradient4460-9"
       id="linearGradient4033"
       x1="-27"
       y1="13"
       x2="-24"
       y2="13"
       gradientUnits="userSpaceOnUse" />
    <linearGradient
       id="linearGradient4460-9">
      <stop
         id="stop4454"
         style="stop-color:#24b2da;stop-opacity:1;"
         offset="0" />
      <stop
         id="stop4456"
         style="stop-color:#36b9de;stop-opacity:1;"
         offset="1" />
    </linearGradient>
  </defs>
  <g
     inkscape:groupmode="layer"
     id="layer1"
     inkscape:label="Shadow"
     sodipodi:insensitive="true">
    <path
       style="opacity:0.05;fill:#000000;fill-opacity:1;stroke:none"
       d="M 25,2 C 12.297451,2 2,12.297451 2,25 2,31.367153 4.6007106,37.116628 8.78125,41.28125 12.865755,44.99361 18.29568,47.25 24.25,47.25 c 12.702549,0 23,-10.297451 23,-23 0,-5.95432 -2.25639,-11.384245 -5.96875,-15.46875 C 37.116628,4.6007105 31.367153,2 25,2 z M 41.28125,8.78125 C 45.135604,12.894061 47.5,18.418655 47.5,24.5 c 0,12.702549 -10.297451,23 -23,23 C 18.418655,47.5 12.894061,45.135604 8.78125,41.28125 12.940939,45.4251 18.664604,48 25,48 37.702549,48 48,37.702549 48,25 48,18.664604 45.4251,12.940939 41.28125,8.78125 z"
       transform="scale(0.28222223,0.28222223)"
       id="path3978"
       inkscape:connector-curvature="0" />
    <path
       style="opacity:0.1;fill:#000000;fill-opacity:1;stroke:none"
       d="M 41.28125,8.78125 C 44.99361,12.865755 47.25,18.29568 47.25,24.25 c 0,12.702549 -10.297451,23 -23,23 -5.95432,0 -11.384245,-2.25639 -15.46875,-5.96875 C 12.894061,45.135604 18.418655,47.5 24.5,47.5 c 12.702549,0 23,-10.297451 23,-23 0,-6.081345 -2.364396,-11.605939 -6.21875,-15.71875 z"
       transform="scale(0.28222223,0.28222223)"
       id="path3976"
       inkscape:connector-curvature="0" />
    <path
       transform="matrix(4.3274074,0,0,3.2455556,117.19278,-35.348334)"
       d="m -24,13 a 1.5,2 0 1 1 -3,0 1.5,2 0 1 1 3,0 z"
       sodipodi:ry="2"
       sodipodi:rx="1.5"
       sodipodi:cy="13"
       sodipodi:cx="-25.5"
       id="path3952"
       style="opacity:0.2;fill:#000000;fill-opacity:1;stroke:none"
       sodipodi:type="arc" />
  </g>
  <g
     inkscape:groupmode="layer"
     id="layer2"
     inkscape:label="Base">
    <path
       sodipodi:type="arc"
       style="fill:url(#linearGradient4033);fill-opacity:1.0;stroke:none"
       id="path3942"
       sodipodi:cx="-25.5"
       sodipodi:cy="13"
       sodipodi:rx="1.5"
       sodipodi:ry="2"
       d="m -24,13 a 1.5,2 0 1 1 -3,0 1.5,2 0 1 1 3,0 z"
       transform="matrix(0,-4.3274075,3.2455556,0,-35.418894,-103.57556)" />
    <path
       style="opacity:0.1;fill:#000000;fill-opacity:1;stroke:none"
       d="M 40.03125 7.53125 C 43.74361 11.615755 46 17.04568 46 23 C 46 35.702549 35.702549 46 23 46 C 17.04568 46 11.615755 43.74361 7.53125 40.03125 C 11.709416 44.322508 17.537578 47 24 47 C 36.702549 47 47 36.702549 47 24 C 47 17.537578 44.322508 11.709416 40.03125 7.53125 z "
       id="path4027"
       transform="scale(0.28222223,0.28222223)" />
  </g>
  <g
     inkscape:groupmode="layer"
     id="layer3"
     inkscape:label="Symbol">
    <g
       id="g5479">
      <path
         inkscape:connector-curvature="0"
         style="fill:#000000;fill-opacity:0.09803922;fill-rule:evenodd;stroke:none"
         d="m 7.0158727,2.8222228 c -2.256829,0 -4.0922217,1.8353945 -4.0922217,4.0922223 0,0.086329 0.00324,0.1707448 0.00852,0.2557642 -0.2333628,0.1341871 -0.3921709,0.3849995 -0.3921709,0.6735112 0,0.4235221 0.3374933,0.7664462 0.7587666,0.7758175 0.6473188,1.408482 2.0678902,2.387129 3.7171013,2.387129 0.7300793,0 1.4180057,-0.192297 2.0120107,-0.528575 0.1222476,0.08003 0.2692262,0.127881 0.4262749,0.127881 0.4294156,0 0.7843444,-0.346409 0.7843444,-0.7758187 0,-0.1073539 -0.02885,-0.213896 -0.06822,-0.3069172 -9.7e-4,-0.00238 0.0011,-0.00614 0,-0.00852 0.584209,-0.7076268 0.937799,-1.6129047 0.937799,-2.6002666 0,-0.3770951 -0.05755,-0.744293 -0.153459,-1.0912591 0.161725,-0.1424811 0.264292,-0.3557815 0.264292,-0.5882571 0,-0.4294134 -0.346401,-0.7758171 -0.77582,-0.7758171 -0.05084,0 -0.105302,0.00769 -0.153454,0.017049 C 9.5429064,3.4764984 8.357077,2.8222228 7.0158727,2.8222228 z m 0,0.5456297 c 1.1550606,0 2.1412297,0.5734666 2.779306,1.4322778 -0.08384,0.1240934 -0.1364074,0.2737686 -0.1364074,0.4347987 0,0.079109 0.02067,0.1582635 0.042629,0.2301875 L 8.1923865,6.7695125 C 8.0751906,6.6987039 7.938604,6.6586814 7.7916897,6.6586814 c -0.3594968,0 -0.652736,0.2397959 -0.741715,0.5712061 L 4.0063848,7.4771257 C 3.9006313,7.2775264 3.7133154,7.1253598 3.4863312,7.0764291 c -0.00415,-0.053929 -0.01705,-0.1071802 -0.01705,-0.161984 0,-1.9609121 1.5856785,-3.5465926 3.5465923,-3.5465926 z m 3.0265463,2.5320627 c 0.114943,0.069447 0.248434,0.1093022 0.392165,0.1108307 0.07926,0.2885593 0.127882,0.5898671 0.127882,0.9036992 0,0.8394829 -0.297786,1.6017539 -0.7843385,2.2080952 -0.097823,-0.044377 -0.2095568,-0.068206 -0.3239695,-0.068206 -0.0659,0 -0.1264558,0.00157 -0.1875592,0.017049 L 8.439625,7.869297 c 0.00144,-0.00204 -0.00143,-0.00647 0,-0.00852 C 8.52092,7.7379199 8.5675067,7.59285 8.5675067,7.4345037 c 0,-0.084728 -0.00906,-0.1708916 -0.034098,-0.247238 L 10.042419,5.8999152 z M 7.1011275,7.775517 c 0.1273558,0.2556532 0.3855447,0.4347987 0.6905622,0.4347987 0.069063,0 0.1408653,-0.00868 0.2046114,-0.025578 l 0.8184436,1.2106164 c -0.083837,0.1240931 -0.136407,0.2737683 -0.136407,0.4348002 0,0.05072 0.00774,0.09694 0.017049,0.1449306 -0.4969694,0.2933681 -1.0585432,0.4859481 -1.6795156,0.4859481 -1.4176808,0 -2.623089,-0.8368339 -3.1885224,-2.037582 0.1194783,-0.10411 0.208817,-0.2415784 0.247239,-0.4006959 L 7.1011271,7.7755166 z"
         id="path4000" />
      <path
         id="path3812"
         d="m 6.733648,2.5400005 c -2.2568293,0 -4.092222,1.8353945 -4.092222,4.0922221 0,0.086329 0.00324,0.1707448 0.00852,0.2557643 -0.2333602,0.1341871 -0.3921682,0.3849995 -0.3921682,0.6735112 0,0.423522 0.3374929,0.7664461 0.7587661,0.7758175 0.6473188,1.4084815 2.0678902,2.3871294 3.7171017,2.3871294 0.7300788,0 1.4180053,-0.192297 2.0120084,-0.528576 0.1222464,0.08003 0.2692266,0.127882 0.4262766,0.127882 0.4294143,0 0.7843441,-0.3464093 0.7843441,-0.7758201 0,-0.1073532 -0.028854,-0.2138952 -0.068205,-0.3069162 -9.67e-4,-0.00238 0.0011,-0.00614 0,-0.00852 0.5842043,-0.7076281 0.9378003,-1.612906 0.9378003,-2.6002679 0,-0.377095 -0.05755,-0.7442928 -0.15346,-1.091259 0.161724,-0.1424811 0.264292,-0.3557816 0.264292,-0.5882571 0,-0.4294135 -0.346405,-0.775817 -0.775818,-0.775817 -0.05087,0 -0.105304,0.00769 -0.153459,0.017049 C 9.2606806,3.1942761 8.0748519,2.5400005 6.733648,2.5400005 z m 0,0.5456296 c 1.1550601,0 2.1412278,0.5734666 2.7793037,1.4322779 -0.08384,0.1240934 -0.1364075,0.2737684 -0.1364075,0.4347986 0,0.079109 0.02067,0.1582635 0.04263,0.2301874 L 7.9101613,6.4872901 C 7.7929653,6.4164815 7.6563789,6.376459 7.5094645,6.376459 c -0.3594966,0 -0.6527356,0.2397959 -0.7417144,0.5712061 L 3.7241597,7.1949032 C 3.6184063,6.995304 3.4310901,6.8431373 3.2041063,6.7942067 c -0.00415,-0.053928 -0.01705,-0.1071802 -0.01705,-0.1619841 0,-1.9609119 1.5856784,-3.5465925 3.5465926,-3.5465925 z m 3.0265437,2.5320626 c 0.1149493,0.06945 0.2484363,0.1093022 0.3921683,0.1108308 0.07926,0.2885593 0.127881,0.5898671 0.127881,0.9036991 0,0.839483 -0.2977839,1.6017539 -0.7843404,2.2080952 -0.097823,-0.044377 -0.2095563,-0.068206 -0.3239674,-0.068206 -0.0659,0 -0.1264567,0.00157 -0.1875624,0.017049 L 8.1574001,7.5870744 c 0.00142,-0.00204 -0.00144,-0.00647 0,-0.00852 0.081295,-0.122857 0.1278818,-0.2679269 0.1278818,-0.4262732 0,-0.084728 -0.00906,-0.1708916 -0.034098,-0.247238 L 9.7601917,5.6176927 z M 6.8189028,7.4932945 c 0.1273555,0.2556532 0.3855444,0.4347987 0.6905617,0.4347987 0.069063,0 0.1408654,-0.00868 0.2046115,-0.025578 l 0.8184443,1.2106161 c -0.083837,0.1240931 -0.1364074,0.2737683 -0.1364074,0.4347984 0,0.05073 0.00774,0.096913 0.017049,0.1449333 -0.4969682,0.2933727 -1.0585418,0.485948 -1.6795139,0.485948 -1.4176812,0 -2.6230891,-0.8368332 -3.1885227,-2.0375815 C 3.6646026,8.0371189 3.7539412,7.8996506 3.7923632,7.740533 L 6.8189028,7.4932945 z"
         style="fill:#f9f9f9;fill-opacity:1;fill-rule:evenodd;stroke:none"
         inkscape:connector-curvature="0" />
    </g>
  </g>
</svg>

<svg xmlns="http://www.w3.org/2000/svg" width="48" viewBox="0 0 13.546667 13.546667" height="48">
 <defs>
  <linearGradient id="linearGradient4033" x1="-27" x2="-24" gradientUnits="userSpaceOnUse">
   <stop style="stop-color:#24b2da;stop-opacity:1"/>
   <stop offset="1" style="stop-color:#36b9de;stop-opacity:1"/>
  </linearGradient>
 </defs>
 <g>
  <path d="m 25 2 c -12.703 0 -23 10.297 -23 23 0 6.367 2.601 12.12 6.781 16.281 4.085 3.712 9.514 5.969 15.469 5.969 c 12.703 0 23 -10.297 23 -23 0 -5.954 -2.256 -11.384 -5.969 -15.469 c -4.165 -4.181 -9.914 -6.781 -16.281 -6.781 z m 16.281 6.781 c 3.854 4.113 6.219 9.637 6.219 15.719 c 0 12.703 -10.297 23 -23 23 c -6.081 0 -11.606 -2.364 -15.719 -6.219 4.16 4.144 9.883 6.719 16.219 6.719 12.703 0 23 -10.297 23 -23 0 -6.335 -2.575 -12.06 -6.719 -16.219 z" transform="scale(0.28222223,0.28222223)" style="fill:#000;opacity:0.05;fill-opacity:1;stroke:none"/>
  <path d="m 41.28 8.781 c 3.712 4.085 5.969 9.514 5.969 15.469 c 0 12.703 -10.297 23 -23 23 -5.954 0 -11.384 -2.256 -15.469 -5.969 c 4.113 3.854 9.637 6.219 15.719 6.219 c 12.703 0 23 -10.297 23 -23 0 -6.081 -2.364 -11.606 -6.219 -15.719 z" transform="scale(0.28222223,0.28222223)" style="fill:#000;opacity:0.1;fill-opacity:1;stroke:none"/>
  <path transform="matrix(4.3274074,0,0,3.2455556,117.19278,-35.348334)" d="m -24 13 a 1.5 2 0 1 1 -3 0 1.5 2 0 1 1 3 0 z" style="fill:#000;opacity:0.2;fill-opacity:1;stroke:none"/>
 </g>
 <g>
  <path d="m -24 13 a 1.5 2 0 1 1 -3 0 1.5 2 0 1 1 3 0 z" transform="matrix(0,-4.3274075,3.2455556,0,-35.418894,-103.57556)" style="fill:url(#linearGradient4033);fill-opacity:1;stroke:none"/>
  <path d="m 40.03 7.531 c 3.712 4.085 5.969 9.514 5.969 15.469 c 0 12.703 -10.297 23 -23 23 c -5.954 0 -11.384 -2.256 -15.469 -5.969 c 4.178 4.291 10.01 6.969 16.469 6.969 c 12.703 0 23 -10.297 23 -23 c 0 -6.462 -2.677 -12.291 -6.969 -16.469 z" transform="scale(0.28222223,0.28222223)" style="fill:#000;opacity:0.1;fill-opacity:1;stroke:none"/>
 </g>
 <g>
  <g>
   <path d="m 7.02 2.822 c -2.257 0 -4.092 1.835 -4.092 4.092 0 0.086 0.003 0.171 0.009 0.256 -0.233 0.134 -0.392 0.385 -0.392 0.674 0 0.424 0.337 0.766 0.759 0.776 0.647 1.408 2.068 2.387 3.717 2.387 0.73 0 1.418 -0.192 2.01 -0.529 0.122 0.08 0.269 0.128 0.426 0.128 0.429 0 0.784 -0.346 0.784 -0.776 0 -0.107 -0.029 -0.214 -0.068 -0.307 0 -0.002 0 -0.006 0 -0.009 0.584 -0.708 0.938 -1.613 0.938 -2.6 0 -0.377 -0.058 -0.744 -0.153 -1.091 0.162 -0.142 0.264 -0.356 0.264 -0.588 0 -0.429 -0.346 -0.776 -0.776 -0.776 -0.051 0 -0.105 0.008 -0.153 0.017 c -0.747 -1 -1.933 -1.654 -3.274 -1.654 z m 0 0.546 c 1.155 0 2.141 0.573 2.779 1.432 -0.084 0.124 -0.136 0.274 -0.136 0.435 0 0.079 0.021 0.158 0.043 0.23 l -1.509 1.304 c -0.117 -0.071 -0.254 -0.111 -0.401 -0.111 c -0.359 0 -0.653 0.24 -0.742 0.571 l -3.044 0.247 c -0.106 -0.2 -0.293 -0.352 -0.52 -0.401 c -0.004 -0.054 -0.017 -0.107 -0.017 -0.162 0 -1.961 1.586 -3.547 3.547 -3.547 z m 3.03 2.532 c 0.115 0.069 0.248 0.109 0.392 0.111 0.079 0.289 0.128 0.59 0.128 0.904 0 0.839 -0.298 1.602 -0.784 2.208 -0.098 -0.044 -0.21 -0.068 -0.324 -0.068 -0.066 0 -0.126 0.002 -0.188 0.017 l -0.827 -1.202 c 0 -0.002 0 -0.006 0 -0.009 c 0.081 -0.123 0.128 -0.268 0.128 -0.426 c 0 -0.085 -0.009 -0.171 -0.034 -0.247 l 1.509 -1.287 z m -2.941 1.876 c 0.127 0.256 0.386 0.435 0.691 0.435 0.069 0 0.141 -0.009 0.205 -0.026 l 0.818 1.211 c -0.084 0.124 -0.136 0.274 -0.136 0.435 0 0.051 0.008 0.097 0.017 0.145 -0.497 0.293 -1.059 0.486 -1.68 0.486 -1.418 0 -2.623 -0.837 -3.189 -2.038 0.119 -0.104 0.209 -0.242 0.247 -0.401 l 3.03 -0.247 z" style="fill:#000;fill-opacity:0.098;stroke:none;fill-rule:evenodd"/>
   <path d="m 6.734 2.54 c -2.257 0 -4.092 1.835 -4.092 4.092 0 0.086 0.003 0.171 0.009 0.256 -0.233 0.134 -0.392 0.385 -0.392 0.674 0 0.424 0.337 0.766 0.759 0.776 0.647 1.408 2.068 2.387 3.717 2.387 0.73 0 1.418 -0.192 2.01 -0.529 0.122 0.08 0.269 0.128 0.426 0.128 0.429 0 0.784 -0.346 0.784 -0.776 0 -0.107 -0.029 -0.214 -0.068 -0.307 0 -0.002 0 -0.006 0 -0.009 0.584 -0.708 0.938 -1.613 0.938 -2.6 0 -0.377 -0.058 -0.744 -0.153 -1.091 0.162 -0.142 0.264 -0.356 0.264 -0.588 0 -0.429 -0.346 -0.776 -0.776 -0.776 -0.051 0 -0.105 0.008 -0.153 0.017 c -0.747 -1 -1.933 -1.654 -3.274 -1.654 z m 0 0.546 c 1.155 0 2.141 0.573 2.779 1.432 -0.084 0.124 -0.136 0.274 -0.136 0.435 0 0.079 0.021 0.158 0.043 0.23 l -1.509 1.304 c -0.117 -0.071 -0.254 -0.111 -0.401 -0.111 c -0.359 0 -0.653 0.24 -0.742 0.571 l -3.044 0.247 c -0.106 -0.2 -0.293 -0.352 -0.52 -0.401 c -0.004 -0.054 -0.017 -0.107 -0.017 -0.162 0 -1.961 1.586 -3.547 3.547 -3.547 z m 3.03 2.532 c 0.115 0.069 0.248 0.109 0.392 0.111 0.079 0.289 0.128 0.59 0.128 0.904 0 0.839 -0.298 1.602 -0.784 2.208 -0.098 -0.044 -0.21 -0.068 -0.324 -0.068 -0.066 0 -0.126 0.002 -0.188 0.017 l -0.827 -1.202 c 0 -0.002 0 -0.006 0 -0.009 0.081 -0.123 0.128 -0.268 0.128 -0.426 0 -0.085 -0.009 -0.171 -0.034 -0.247 l 1.509 -1.287 z m -2.941 1.876 c 0.127 0.256 0.386 0.435 0.691 0.435 0.069 0 0.141 -0.009 0.205 -0.026 l 0.818 1.211 c -0.084 0.124 -0.136 0.274 -0.136 0.435 0 0.051 0.008 0.097 0.017 0.145 -0.497 0.293 -1.059 0.486 -1.68 0.486 -1.418 0 -2.623 -0.837 -3.189 -2.038 c 0.119 -0.104 0.209 -0.242 0.247 -0.401 l 3.03 -0.247 z" style="fill:#f9f9f9;fill-opacity:1;stroke:none;fill-rule:evenodd"/>
  </g>
 </g>
</svg>
